X: 790
T: Tudi fa
%%abc-version 2.0
%%abcx-abcm2ps-target-version 5.9.1 (29 Sep 2008)
%%abc-creator hum2abc beta
%%abcx-conversion-date 2013/10/02 07:52:31
%%abc-edited-by Helmut Schaffrath
%%humdrum-veritas 3866596123
%%humdrum-veritas-data 1563217468
%%continueall 1
%%barnumbers 0
L: 1/8
M: 2/4
K: G
d g e d [I:setbarnb 1]| 
d GA2 | 
d d/ e/ d G | 
A2z2 | 
A> B B d | 
B A G F | 
E GA2 | 
B> G F E | 
D4 |]  



